src/images/circuits/united.svg

<svg width="40" height="29" viewBox="0 0 40 29" fill="none" xmlns="http://www.w3.org/2000/svg">
<path d="M16.0488 27.5894L1.73499 19.4296C1.40451 19.2412 1.39711 18.7674 1.72154 18.5688L6.33155 15.7464C6.54065 15.6184 6.8109 15.6605 6.97502 15.8426C7.80754 16.7665 9.34986 18.3263 10.5872 19.0687C12.3303 20.1146 13.8991 18.8363 14.5383 18.4295C15.0121 18.128 15.0901 16.9382 15.0681 16.2568C15.0649 16.1578 15.0292 16.0633 14.9692 15.9845L12.3452 12.5373C12.2013 12.3482 12.2172 12.0794 12.44 11.9968C12.6631 11.9141 12.9787 11.874 13.3762 11.98C14.2478 12.2124 14.7707 13.4326 15.1193 13.8974C15.4679 14.3623 16.8624 14.3042 17.3273 14.188C17.6641 14.1037 17.5814 13.4092 17.4764 12.9769C17.4564 12.8943 17.4119 12.82 17.3518 12.76L14.8998 10.3079C14.7378 10.146 14.8094 9.86939 15.0296 9.80624C16.46 9.39602 19.7688 8.43299 24.8227 6.92498C30.1744 5.32807 35.8068 2.67348 38.4452 1.29474C38.6182 1.20436 38.8075 1.38873 38.7209 1.56367C37.5735 3.88388 35.6696 7.76365 35.4557 8.31984C35.1651 9.07519 30.9817 10.8761 30.5749 10.237C30.1682 9.59782 28.8899 9.3075 28.1927 10.2953C27.4954 11.283 26.3334 11.9244 25.8104 11.9244C25.2875 11.9244 24.5321 11.3406 23.1957 11.5149C21.8594 11.6892 21.685 13.142 21.6269 13.8973C21.5688 14.6527 20.9878 15.5259 20.1162 15.8745C19.2447 16.2231 19.4771 16.9783 19.0704 18.1404C18.6636 19.3024 16.2814 20.5226 15.7003 21.278C15.1193 22.0333 14.8869 23.4278 15.4679 24.1832C15.7929 24.6057 16.3262 25.8866 16.7501 26.9964C16.9151 27.4285 16.4506 27.8185 16.0488 27.5894Z" stroke="#FF0000"/>
</svg>

<svg width="40" height="29" fill="none" xmlns="http://www.w3.org/2000/svg"><path d="M16.049 27.59 1.735 19.43a.5.5 0 0 1-.013-.861l4.61-2.823a.51.51 0 0 1 .643.097c.833.924 2.375 2.483 3.612 3.226 1.743 1.046 3.312-.233 3.951-.64.474-.301.552-1.49.53-2.172a.475.475 0 0 0-.099-.273l-2.624-3.447c-.144-.189-.128-.458.095-.54.223-.083.539-.123.936-.017.872.232 1.395 1.453 1.743 1.917.349.465 1.743.407 2.208.291.337-.084.254-.779.15-1.211a.462.462 0 0 0-.125-.217L14.9 10.308a.3.3 0 0 1 .13-.502c1.43-.41 4.739-1.373 9.793-2.881 5.351-1.597 10.984-4.252 13.622-5.63.173-.09.362.094.276.269-1.147 2.32-3.051 6.2-3.265 6.756-.29.755-4.474 2.556-4.881 1.917-.407-.64-1.685-.93-2.382.058-.698.988-1.86 1.63-2.383 1.63-.522 0-1.278-.584-2.614-.41-1.337.174-1.511 1.627-1.57 2.382-.057.756-.638 1.629-1.51 1.977-.871.35-.639 1.104-1.046 2.266-.406 1.162-2.789 2.383-3.37 3.138-.58.755-.813 2.15-.232 2.905.325.423.858 1.704 1.282 2.813a.486.486 0 0 1-.701.593Z" stroke="red"/></svg>
